!!!XEN: (no words)
!!!AGN: War song
!!!COM: Anonymous
!!!CNT: Native American -- Ojibway
!!!TXO: Ojibway
!!!MLC: White Earth reservation, northern Minnesota, U.S.A.
!!!MRD: 1907-1909///
!!!MPN: Ga'gandac' ("One whose sails are driven by the wind")
**kern
*MM88
*Imale
*k[b-e-a-d-g-]
*clefF4
*M3/4
=1
4.f
16g-
16f
8d-
8B-
=2
4.f
16g-
16f
8d-
8B-
=3
*M2/4
4.d-
16g-
16e-
=4
8d-
8B-
8d-
8B-
=5
8.A-
16A-
[4A-
=6
2A-]
=7
4F
4A-
=8
4B-
4A-
=9
16A-
8.F
8.F
16F
=10
[2F
=11
2F]
=12
4B-
[4d-
=13
4d-]
8f
8d-
=14
4B-
12d-
[12B-
12B-]
=15
8.A-
16A-
[4A-
=16
2A-]
=17
4F
4A-
=18
4B-
4A-
=19
16A-
8.F
8.F
16F
=20
[2F
=21
2F]
==
*-
!!!OCL: Frances Densmore
!!!YOR: Chippewa [i.e., Ojibway] Music, Bulletin 45 of the Bureau of American Ethnology, Smitsonian Institution
!!!ONM: 125
!!!PPG: 139-140
!!!PUB: published
!!!PPR: Government Printing Office
!!!PPP: Washington, D.C.
!!!PDT: 1909///
!!!EST: missing clef changes, text, drum tempo, and drum part
!!!YEC: Copyright 1998 Paul von Hippel
!!!YEM: Rights to all derivate electronic formats reserved.
!!!EFL: 12/42
